X:1
T:Let the Sunshine In
T:Let the Sunshine In
T:Charles Hutchinson Gabriel
T:Ada J. Blenkhorn, 1896
T:Public Domain Courtesy of the Cyber Hymnal™
T:Public Domain Courtesy of the Cyber Hymnal™
C:Charles Hutchinson Gabriel
Z:Public Domain
Z:Courtesy of the Cyber Hymnal™
%%score ( 1 2 ) ( 3 4 )
L:1/8
Q:1/4=110
M:4/4
K:Ab
V:1 treble 
V:2 treble 
V:3 bass 
V:4 bass 
V:1
 [CE]>[Ec] [Ec]>[DB] [DB]>[CA] [CA]>[CF] | [DG]2 [DG]2 [DG]4 | %2
w: 1.~Do you fear the foe will in the|con- flict win?|
w: 2.~Does your faith grow faint- er in the|cause you love?|
w: 3.~Would you go re- joic- ing in the|up- ward way,|
 E>[Ed] [Ed]>[Ec] [Ec]>[EB] [EB]>[EG] | [EB]2 [EA]2 [EA]4 | [CE]>[Ec] [Ec]>[DB] [DB]>[CA] [CA]>E | %5
w: Is it dark with- out you— dark- er|still with- in?|Clear the dark- ened win- dows, o- pen|
w: Are your prayers un- an- swered by your|God a- bove?|Clear the dark- ened win- dows, o- pen|
w: Know- ing naught of dark- ness, dwell- ing|in the day?|Clear the dark- ened win- dows, o- pen|
 [EG]2 [DF]2 !fermata![Fd]4 | [Ec]>[CE] [CE]<[CA] [DB]2 [DB]2 | [CA]6 z2 || %8
w: wide the door,|Let a lit- tle sun- shine|in.|
w: wide the door,|Let a lit- tle sun- shine|in.|
w: wide the door,|Let a lit- tle sun- shine|in.|
"^Refrain" [CE]>[Ee] [Ae]<[Af] [Ae]2 A2 | G4- [EG]2 z2 | E>[Gd] [Gd]<[Ge] [Gd]2 E2 | c4- [Ec]2 z2 | %12
w: ||||
w: Let a lit- tle sun- shine|in, Let|* a lit- tle sun- shine|in; Clear|
w: ||||
 [CE]>[Ee] [Ae]>[Af] [Ae]>[Ec] [EA]>E | [EG]2 [DF]2 !fermata![Fd]4 | %14
w: ||
w: * the dark- ened win- dows, O- pen|wide the door,|
w: ||
 [Ec]>[CE] [CE]<[CA] [DB]2 [DB]2 | [CA]6 z2 |] %16
w: ||
w: Let a lit- tle sun- shine|in.|
w: ||
V:2
 x8 | x8 | E3/2 x13/2 | x8 | x15/2 E/ | x8 | x8 | x8 || x6 (E>E) | E2 E2 x4 | %10
 E3/2 x3 (E3/2 E/) x3/2 | E2 E2 x4 | x15/2 E/ | x8 | x8 | x8 |] %16
V:3
 [A,,A,]>[A,,A,] [A,,A,]>[A,,A,] [A,,A,]>[A,,E,] [A,,E,]>[A,,E,] | [B,,E,]2 [B,,E,]2 [B,,E,]4 | %2
w: ~ ~ ~ ~ ~ ~ ~ ~|~ ~ ~|
 [E,G,]>[E,B,] [E,B,]>[E,A,] [E,A,]>[E,G,] [E,G,]>[E,B,] | [A,,D]2 [A,,C]2 [A,,C]4 | %4
w: ~ ~ ~ ~ ~ ~ ~ ~|~ ~ ~|
 [A,,A,]>[A,,A,] [A,,A,]>[A,,A,] [A,,A,]>[A,,E,] [A,,E,]>[C,A,] | [D,A,]2 [D,A,]2 [D,A,]4 | %6
w: ~ ~ ~ ~ ~ ~ ~ ~|~ ~ ~|
 [E,A,]>[E,A,] [E,A,]<[E,A,] [E,G,]2 [E,G,]2 | [A,,A,]6 z2 || %8
w: ~ ~ ~ ~ ~ ~|~|
 A,>[A,C] [A,C]<[A,D] [A,C]2 [A,C]>[A,C] | [E,B,]2 [E,B,]2 [E,B,]2 z2 | %10
w: ~ ~ ~ ~ ~ ~ the|sun- shine in,|
 [E,G,]>[E,B,] [E,B,]<[E,B,] [E,B,]2 [G,B,]>[G,B,] | A,2 A,2 A,2 z2 | %12
w: ~ ~ ~ ~ ~ ~ the|sun- shine in,|
 A,>[A,C] [A,C]>[A,D] [A,C]>A, [C,A,]>[C,A,] | [D,A,]2 [D,A,]2 !fermata![D,A,]4 | %14
w: ||
 [E,A,]>[E,A,] [E,A,]<[E,A,] [E,G,]2 [E,G,]2 | [A,,A,]6 z2 |] %16
w: ||
V:4
 x8 | x8 | x8 | x8 | x8 | x8 | x8 | x8 || A,3/2 x13/2 | x8 | x8 | A,2 A,2 A,2 x2 | %12
 A,3/2 x5/2 A,/ x7/2 | x8 | x8 | x8 |] %16

